icons/info-17.svg

<svg width="16" height="17" viewBox="0 0 16 17" fill="none" xmlns="http://www.w3.org/2000/svg">
<path fill-rule="evenodd" clip-rule="evenodd" d="M8 3.29138C5.30761 3.29138 3.125 5.47399 3.125 8.16638C3.125 10.8588 5.30761 13.0414 8 13.0414C10.6924 13.0414 12.875 10.8588 12.875 8.16638C12.875 5.47399 10.6924 3.29138 8 3.29138ZM2 8.16638C2 4.85267 4.68629 2.16638 8 2.16638C11.3137 2.16638 14 4.85267 14 8.16638C14 11.4801 11.3137 14.1664 8 14.1664C4.68629 14.1664 2 11.4801 2 8.16638ZM6.875 7.97888C6.875 7.66822 7.12684 7.41638 7.4375 7.41638H8.1875C8.49816 7.41638 8.75 7.66822 8.75 7.97888V10.0414H8.9375C9.24816 10.0414 9.5 10.2932 9.5 10.6039C9.5 10.9145 9.24816 11.1664 8.9375 11.1664H7.4375C7.12684 11.1664 6.875 10.9145 6.875 10.6039C6.875 10.2932 7.12684 10.0414 7.4375 10.0414H7.625V8.54138H7.4375C7.12684 8.54138 6.875 8.28954 6.875 7.97888ZM8 6.66638C8.41422 6.66638 8.75 6.33059 8.75 5.91638C8.75 5.50217 8.41422 5.16638 8 5.16638C7.58579 5.16638 7.25 5.50217 7.25 5.91638C7.25 6.33059 7.58579 6.66638 8 6.66638Z" fill="#272431"/>
</svg>

<svg xmlns="http://www.w3.org/2000/svg" width="16" height="17" viewBox="0 0 16 17"><path fill-rule="evenodd" d="M8 3.291a4.875 4.875 0 100 9.75 4.875 4.875 0 000-9.75zM2 8.166a6 6 0 1112 0 6 6 0 01-12 0zm4.875-.187c0-.31.252-.563.563-.563h.75c.31 0 .562.252.562.563v2.062h.188a.562.562 0 110 1.125h-1.5a.563.563 0 010-1.125h.187v-1.5h-.188a.563.563 0 01-.562-.562zM8 6.666a.75.75 0 100-1.5.75.75 0 000 1.5z"/></svg>
